X: 19
T:Durham Rainger,The. JMT.019
M:4/4
L:1/8
Q:220
S:J.Moore,Tyneside,1841.(13b)
R:Rant
O:England
A:Northumbria
H:184
Z:vmp.Chris Partington
K:D
FG|(AB)AF A2de|(fg)efd2Ac|(de)dB (AB)AF|F2E2E2FG|!
(AB)AFA2de|(fg)efd2Ac|(de)dB (AB)AG|F2D2D2:|!
|:ag|(fe)fg (af)de|(fe)fg afdf|g2bgf2af|f2e2e2FG|!
(AB)AFA2de|(fg)efd2Ac|(de)dB (AB)AF|F2D2D2:||
